ubersicht/widgets/weather.widget/lib/icons/cloud-moon.svg

<svg xmlns="http://www.w3.org/2000/svg" xml:space="preserve" style="fill-rule:evenodd;clip-rule:evenodd;stroke-linejoin:round;stroke-miterlimit:2" viewBox="0 0 200 200">
    <path d="M-1499.236-1183.816h3426.96v2296.67h-3426.96z"/>
    <path d="M20.856 28.841h194.975v135.49H20.856z" style="fill:none" transform="matrix(1.02577 0 0 1.47613 -21.394 -42.573)"/>
    <path d="M259.361 376.175c3.324-21.961 22.049-38.897 44.802-39.439-13.141 18.504-14.446 40.519-2.128 51.721 11.942 10.86 32.789 8.011 49.701-5.689l.001.405c0 19.998-12.664 37.061-30.403 43.599a35.7 35.7 0 0 0-5.659-7.982c-9.518-10.125-24.051-11.492-32.634-11.673-2.42-8.778-8.207-22.943-23.68-30.942" style="fill:#fff700" transform="matrix(.8657 0 0 .86571 -128.299 -243.031)"/>
    <path d="M59.694 92.473c2.238-10.8 13.266-32.983 39.401-31.446 27.803 1.635 36.027 20.475 38.83 30.639 7.145.151 19.243 1.289 27.167 9.718 5.218 5.551 9.131 13.987 8.824 27.031-.294 12.469-11.774 26.563-24.142 29.85-9.87 2.623-28.724 1.291-47.131.936-16.87-.325-33.365.48-42.224-.621-8.593-1.069-17.961-8.497-21.796-14.136-3.991-5.87-5.19-12.478-5.178-18.679.022-10.397 3.434-16.557 7.253-21.658 5.878-7.852 13.634-10.551 18.996-11.634m10.18 10.227c-7.902 1.07-13.874 1.4-19.208 8.526-2.468 3.297-4.633 7.931-4.647 14.651a20 20 0 0 0 3.426 11.166c2.429 3.574 8.09 8.711 13.527 9.226 7.742.733 23.272.409 39.359.564 17.324.166 35.095.906 43.62-.769 8.02-1.576 15.3-11.324 15.478-18.879.198-8.413-2.686-13.088-6.052-16.668-7.815-8.314-14.76-6.575-20.145-6.735-1.997-.06-7.05-.045-7.05-.045s-.422-3.737-.577-5.581c0 0-2.997-23.542-29.046-25.074-11.026-.648-18.547 5.237-22.365 11.348-4.146 6.636-3.834 6.406-4.887 9.451-.974 2.814-.948 6.219-1.433 8.819" style="fill:#fff" transform="translate(-31.052 24.075)scale(1.0399)"/>
</svg>

<?xml version="1.0" encoding="UTF-8" standalone="no"?>
<!DOCTYPE svg PUBLIC "-//W3C//DTD SVG 1.1//EN" "http://www.w3.org/Graphics/SVG/1.1/DTD/svg11.dtd">
<svg width="100%" height="100%" viewBox="0 0 200 200" version="1.1" xmlns="http://www.w3.org/2000/svg" xmlns:xlink="http://www.w3.org/1999/xlink" xml:space="preserve" xmlns:serif="http://www.serif.com/" style="fill-rule:evenodd;clip-rule:evenodd;stroke-linejoin:round;stroke-miterlimit:2;">
    <g transform="matrix(1,0,0,1,-734.504,-270.959)">
        <g transform="matrix(1,0,0,1,292.408,-172.397)">
            <rect x="-1057.14" y="-740.46" width="3426.96" height="2296.67"/>
        </g>
        <g id="CloudMoon" transform="matrix(1.02577,0,0,1.47613,713.11,228.386)">
            <rect x="20.856" y="28.841" width="194.975" height="135.49" style="fill:none;"/>
            <g transform="matrix(0.843958,0,0,0.586474,-104.219,-135.8)">
                <path d="M259.361,376.175C262.685,354.214 281.41,337.278 304.163,336.736C291.022,355.24 289.717,377.255 302.035,388.457C313.977,399.317 334.824,396.468 351.736,382.768L351.737,383.173C351.737,403.171 339.073,420.234 321.334,426.772C319.714,423.667 317.783,421.032 315.675,418.79C306.157,408.665 291.624,407.298 283.041,407.117C280.621,398.339 274.834,384.174 259.361,376.175Z" style="fill:rgb(255,247,0);"/>
            </g>
            <g transform="matrix(1.01377,0,0,0.704474,-9.41488,45.1508)">
                <path d="M59.694,92.473C61.932,81.673 72.96,59.49 99.095,61.027C126.898,62.662 135.122,81.502 137.925,91.666C145.07,91.817 157.168,92.955 165.092,101.384C170.31,106.935 174.223,115.371 173.916,128.415C173.622,140.884 162.142,154.978 149.774,158.265C139.904,160.888 121.05,159.556 102.643,159.201C85.773,158.876 69.278,159.681 60.419,158.58C51.826,157.511 42.458,150.083 38.623,144.444C34.632,138.574 33.433,131.966 33.445,125.765C33.467,115.368 36.879,109.208 40.698,104.107C46.576,96.255 54.332,93.556 59.694,92.473ZM69.874,102.7C61.972,103.77 56,104.1 50.666,111.226C48.198,114.523 46.033,119.157 46.019,125.877C46.011,129.547 47.082,133.569 49.445,137.043C51.874,140.617 57.535,145.754 62.972,146.269C70.714,147.002 86.244,146.678 102.331,146.833C119.655,146.999 137.426,147.739 145.951,146.064C153.971,144.488 161.251,134.74 161.429,127.185C161.627,118.772 158.743,114.097 155.377,110.517C147.562,102.203 140.617,103.942 135.232,103.782C133.235,103.722 128.182,103.737 128.182,103.737C128.182,103.737 127.76,100 127.605,98.156C127.605,98.156 124.608,74.614 98.559,73.082C87.533,72.434 80.012,78.319 76.194,84.43C72.048,91.066 72.36,90.836 71.307,93.881C70.333,96.695 70.359,100.1 69.874,102.7Z" style="fill:white;"/>
            </g>
        </g>
    </g>
</svg>
